X: 9763
T: Delia's Dream
R: hornpipe
M: 4/4
K: Dmajor
(3gfe|:dAFA EAeg|fdAG (3FED FA|GBef gaba|(3gag fg ecAG|
FAfA EAeg|(3fgf ec dAFA|GAfA gA (3efg|afge d2 dc:|
|:defg a^gab|afge fdAF|GBef gaba|(3gag fg ecAG|
FAfA EAeg|(3fgf ec dAFA|GAfA gA (3efg|1 afge d2 (3ABc:|2 afge d4||

